svg/broken-heart.svg

<?xml version="1.0" encoding="UTF-8"?>
<svg xmlns="http://www.w3.org/2000/svg" xmlns:xlink="http://www.w3.org/1999/xlink" width="32" height="32" viewBox="0 0 32 32">
<path fill-rule="nonzero" fill="rgb(0%, 0%, 0%)" fill-opacity="1" d="M 22.398438 4.480469 C 21.199219 4.476562 20.011719 4.738281 18.921875 5.238281 L 17.921875 9.601562 L 20.289062 9.601562 L 17.984375 15.359375 L 19.648438 15.359375 L 14.398438 23.808594 L 16 16.640625 L 13.886719 16.640625 L 15.871094 10.878906 L 13.183594 10.878906 L 14.148438 5.84375 C 12.835938 4.957031 11.273438 4.480469 9.601562 4.480469 C 5.011719 4.480469 1.28125 8.207031 1.28125 12.796875 C 1.28125 20.226562 7.789062 24.578125 12.539062 27.761719 C 13.761719 28.578125 14.8125 29.28125 15.589844 29.933594 C 15.828125 30.128906 16.171875 30.128906 16.410156 29.933594 C 17.191406 29.28125 18.238281 28.578125 19.460938 27.761719 C 24.210938 24.578125 30.71875 20.226562 30.71875 12.800781 C 30.71875 8.210938 26.992188 4.480469 22.398438 4.480469 "/>
</svg>

<svg role="img" viewBox="0 0 32 32" height="32" width="32" xmlns="http://www.w3.org/2000/svg"><path d="M22.398 4.48a8.281 8.281 0 0 0-3.476.758l-1 4.364h2.367l-2.305 5.757h1.664l-5.25 8.45L16 16.64h-2.113l1.984-5.762h-2.687l.964-5.035c-1.312-.887-2.875-1.364-4.546-1.364-4.59 0-8.32 3.727-8.32 8.317 0 7.43 6.507 11.781 11.257 14.965 1.223.816 2.274 1.52 3.05 2.172a.647.647 0 0 0 .821 0c.781-.653 1.828-1.356 3.05-2.172 4.75-3.183 11.26-7.534 11.26-14.961 0-4.59-3.727-8.32-8.32-8.32"/></svg>
